lib/brands/icons/haiku.svg

<svg xmlns="http://www.w3.org/2000/svg" fill="none" aria-hidden="true" viewBox="0 0 48 48"><g id="haiku-Icon"><g id="Group"><path id="Vector" fill="url(#paint0_linear_94_16663)" d="M33.6188 6.10895L33.3941 6.02912C33.2958 6.00553 33.1944 5.9963 33.0928 6.00198C32.9336 6.01089 32.7785 6.05629 32.6395 6.13466C31.0983 6.76361 29.3855 7.46666 27.681 8.18333C27.3737 8.31247 27.3751 8.74737 27.6826 8.87543L31.8179 10.597C31.9581 10.6553 32.0494 10.7923 32.0497 10.9441C32.0517 12.2985 32.0698 13.5663 32.0529 14.9226C32.051 15.0718 31.9607 15.2056 31.8232 15.2634L20.9355 19.8476C20.6877 19.9518 20.4136 19.7698 20.4136 19.501L20.414 9.29073C20.414 8.89902 20.1948 8.60127 19.8657 8.43534C19.8344 8.41851 19.8026 8.40261 19.7689 8.38859L14.3253 6.08277C14.1785 6.02048 14.0194 5.99271 13.8603 6.00163C13.7011 6.01054 13.5461 6.0559 13.4072 6.13419C11.9257 6.73884 10.1571 7.46841 8.584 8.12608C8.27973 8.25329 8.27586 8.68236 8.57748 8.8157L12.63 10.6074C12.7661 10.6675 12.854 10.8024 12.854 10.9513V23.9821C12.8857 24.1242 12.9432 24.2461 13.0207 24.3466C13.0997 24.4784 13.2296 24.5943 13.425 24.6868L25.3996 30.3853L25.464 30.4105C25.5941 30.4755 25.7408 30.5115 25.8955 30.5115L25.9651 30.5092C26.2126 30.4902 26.4435 30.3782 26.6118 30.1959C26.78 30.0135 26.8729 29.7743 26.872 29.5261V25.5056C26.872 25.3417 26.978 25.1968 27.1341 25.1472L31.568 23.7381C31.8106 23.661 32.058 23.8421 32.0579 24.0966L32.0526 41.3795C32.0525 41.5324 32.145 41.6701 32.2865 41.7278L32.4916 41.8115C32.5575 41.8383 32.626 41.8583 32.6959 41.8713C32.9772 41.9674 33.2835 41.9592 33.5592 41.848L38.9881 39.6272C39.1966 39.5361 39.3383 39.4338 39.4271 39.3188C39.5631 39.1757 39.6468 38.9874 39.6468 38.7177V9.29166C39.6468 8.99952 39.5136 8.76066 39.3103 8.59005C39.2223 8.50732 39.1186 8.43861 39.0018 8.38906L33.6188 6.10895Z"/><path id="Vector_2" fill="url(#paint1_linear_94_16663)" d="M20.4368 33.9909C20.4381 33.8444 20.3543 33.7104 20.2221 33.6476L14.1799 30.776C14.0614 30.7261 13.9341 30.7002 13.8055 30.6998C13.6769 30.6993 13.5494 30.7244 13.4306 30.7734C13.3117 30.8226 13.2037 30.8948 13.1129 30.9859C13.0221 31.077 12.9503 31.1851 12.9015 31.3042C12.8819 31.3514 12.8661 31.3999 12.854 31.4491V41.3778C12.854 41.5279 12.9431 41.6635 13.0808 41.723L13.397 41.8597C13.4294 41.8729 13.4625 41.8845 13.4961 41.8942C13.7536 42.0196 14.0607 42.0392 14.3473 41.9224L19.7296 39.7778C19.924 39.6978 20.0904 39.5617 20.2075 39.3871C20.3244 39.2124 20.3871 39.007 20.3873 38.7966C20.3901 38.7677 20.391 38.7387 20.391 38.7092L20.4368 33.9909Z"/></g></g><defs><linearGradient id="paint0_linear_94_16663" x1="23.7134" x2="23.7134" y1="7.54944" y2="40.4236" gradientUnits="userSpaceOnUse"><stop stop-color="#F1CB2B"/><stop offset="1" stop-color="#D62B5F"/></linearGradient><linearGradient id="paint1_linear_94_16663" x1="23.7135" x2="23.7135" y1="7.5494" y2="40.4236" gradientUnits="userSpaceOnUse"><stop stop-color="#F1CB2B"/><stop offset="1" stop-color="#D62B5F"/></linearGradient></defs></svg>

<svg xmlns="http://www.w3.org/2000/svg" fill="none" aria-hidden="true" viewBox="0 0 48 48"><path fill="url(#a)" d="m33.619 6.109-.225-.08a1.041 1.041 0 0 0-.755.106 513.335 513.335 0 0 0-4.958 2.048.375.375 0 0 0 .002.692l4.135 1.722c.14.058.231.195.232.347.002 1.354.02 2.622.003 3.979a.375.375 0 0 1-.23.34l-10.888 4.585a.376.376 0 0 1-.521-.347V9.291c0-.392-.22-.69-.548-.856a1.092 1.092 0 0 0-.097-.046l-5.444-2.306a1.041 1.041 0 0 0-.918.051 654.44 654.44 0 0 0-4.823 1.992.375.375 0 0 0-.007.69l4.053 1.791c.136.06.224.195.224.344v13.031a.92.92 0 0 0 .167.365.899.899 0 0 0 .404.34l11.974 5.698.065.025a.95.95 0 0 0 .431.102l.07-.003a.982.982 0 0 0 .907-.983v-4.02c0-.164.106-.31.262-.359l4.434-1.409a.376.376 0 0 1 .49.359l-.005 17.282c0 .153.092.291.233.349l.206.084c.065.026.134.046.204.06.281.095.587.087.863-.024l5.429-2.22c.209-.092.35-.194.439-.31.136-.142.22-.33.22-.6V9.292a.9.9 0 0 0-.337-.702 1.046 1.046 0 0 0-.308-.2l-5.383-2.281Z"/><path fill="url(#b)" d="M20.437 33.99a.376.376 0 0 0-.215-.342l-6.042-2.872a.972.972 0 0 0-1.326.673v9.929c0 .15.089.285.227.345l.316.137a.993.993 0 0 0 .099.034c.258.126.565.145.851.028l5.382-2.144a1.063 1.063 0 0 0 .658-.981.904.904 0 0 0 .004-.088l.046-4.718Z"/><defs><linearGradient id="a" x1="23.713" x2="23.713" y1="7.549" y2="40.424" gradientUnits="userSpaceOnUse"><stop stop-color="#F1CB2B"/><stop offset="1" stop-color="#D62B5F"/></linearGradient><linearGradient id="b" x1="23.713" x2="23.713" y1="7.549" y2="40.424" gradientUnits="userSpaceOnUse"><stop stop-color="#F1CB2B"/><stop offset="1" stop-color="#D62B5F"/></linearGradient></defs></svg>
